Script2Pkg/Assets.xcassets/shippingbox.circle.fill.orange.imageset/shippingbox.circle.fill.orange.svg

<svg clip-rule="evenodd" fill-rule="evenodd" stroke-linejoin="round" stroke-miterlimit="2" viewBox="0 0 79 79" xmlns="http://www.w3.org/2000/svg"><g fill-rule="nonzero" transform="translate(-6.83594 74.6582)"><path d="m46.24 4.15c21.533 0 39.453-17.871 39.453-39.404s-17.968-39.404-39.502-39.404c-21.484 0-39.355 17.871-39.355 39.404s17.92 39.404 39.404 39.404z" fill="#c33010"/><path d="m47.803-12.793v-21.191l19.189-11.133c.147.537.196 1.123.196 1.758v15.722c0 3.272-1.221 4.346-3.125 5.567l-15.918 9.13c-.098.049-.196.147-.342.147zm-3.076 0c-.147 0-.245-.098-.391-.147l-15.869-9.13c-1.953-1.221-3.076-2.295-3.076-5.567v-15.722c0-.635 0-1.221.097-1.758l19.239 11.133zm1.513-23.877-19.238-11.035c.293-.293.732-.586 1.221-.83l7.373-4.248 19.287 11.181zm11.768-6.689-19.434-11.133 3.614-2.051c1.367-.83 2.734-1.172 4.052-1.172 1.367 0 2.735.342 4.102 1.172l13.965 8.008c.439.244.879.537 1.22.83z" fill="#fff"/></g></svg>

<?xml version="1.0" encoding="UTF-8" standalone="no"?>
<!DOCTYPE svg PUBLIC "-//W3C//DTD SVG 1.1//EN" "http://www.w3.org/Graphics/SVG/1.1/DTD/svg11.dtd">
<svg width="100%" height="100%" viewBox="0 0 79 79" version="1.1" xmlns="http://www.w3.org/2000/svg" xmlns:xlink="http://www.w3.org/1999/xlink" xml:space="preserve" xmlns:serif="http://www.serif.com/" style="fill-rule:evenodd;clip-rule:evenodd;stroke-linejoin:round;stroke-miterlimit:2;">
    <g transform="matrix(1,0,0,1,-6.83594,74.6582)">
        <path d="M46.24,4.15C67.773,4.15 85.693,-13.721 85.693,-35.254C85.693,-56.787 67.725,-74.658 46.191,-74.658C24.707,-74.658 6.836,-56.787 6.836,-35.254C6.836,-13.721 24.756,4.15 46.24,4.15Z" style="fill:rgb(188,54,24);fill-rule:nonzero;"/>
        <path d="M47.803,-12.793L47.803,-33.984L66.992,-45.117C67.139,-44.58 67.188,-43.994 67.188,-43.359L67.188,-27.637C67.188,-24.365 65.967,-23.291 64.063,-22.07L48.145,-12.94C48.047,-12.891 47.949,-12.793 47.803,-12.793ZM44.727,-12.793C44.58,-12.793 44.482,-12.891 44.336,-12.94L28.467,-22.07C26.514,-23.291 25.391,-24.365 25.391,-27.637L25.391,-43.359C25.391,-43.994 25.391,-44.58 25.488,-45.117L44.727,-33.984L44.727,-12.793ZM46.24,-36.67L27.002,-47.705C27.295,-47.998 27.734,-48.291 28.223,-48.535L35.596,-52.783L54.883,-41.602L46.24,-36.67ZM58.008,-43.359L38.574,-54.492L42.188,-56.543C43.555,-57.373 44.922,-57.715 46.24,-57.715C47.607,-57.715 48.975,-57.373 50.342,-56.543L64.307,-48.535C64.746,-48.291 65.186,-47.998 65.527,-47.705L58.008,-43.359Z" style="fill:white;fill-rule:nonzero;"/>
    </g>
</svg>
